client/public/img/killfeed/vks_killfeed.svg

<?xml version="1.0" encoding="UTF-8" standalone="no"?>
<svg
   width="89.508667"
   height="16.000002"
   viewBox="0 0 89.508667 16.000002"
   fill="none"
   version="1.1"
   id="svg16"
   xmlns="http://www.w3.org/2000/svg"
   xmlns:svg="http://www.w3.org/2000/svg">
  <path
     d="m 37.515218,6.5127521 v 0.4731513 h 0.08869 v 0.2563891 h -0.08889 V 8.934504 h 0.09229 v 0.2314411 h -0.09229 v 0.4663518 h 0.09299 v 0.6140401 h 26.238853 v 0.07009 h 1.165105 V 5.7065681 H 63.85886 v 0.084603 H 37.60441 v 0.721571 z"
     fill="#d9d9d9"
     id="path1"
     style="stroke-width:0.999918" />
  <path
     d="m 37.273337,7.9993405 0.006,2.4450795 -10.792117,0.106392 C 26.319834,10.230738 26.24254,10.19994 25.87527,10.199241 l -0.60885,-1e-4 V 8.3933583 c -0.0053,-0.1485279 0.0318,-0.3923979 0.388368,-0.3926679 z"
     fill="#d9d9d9"
     id="path2"
     style="stroke-width:0.999918" />
  <path
     d="m 13.564077,6.3822928 h 23.71836 V 7.7651197 H 25.74808 c -0.36247,-0.0079 -0.72294,0.092552 -0.717941,0.7144915 v 1.7041308 l -8.19183,-0.0332 c -0.287176,0.0063 -0.452263,0.08609 -0.432064,0.35487 l 0.05609,0.847231 -6.371979,0.85943 -0.5862522,-0.023 C 9.2333318,10.6994 6.5185035,11.217757 5.681122,13.597163 5.4872579,14.056125 5.3520189,14.035827 4.9728499,14.037127 H 3.0389882 C 2.5285699,12.475154 2.1991169,10.648904 2.2074962,9.0385455 H 9.6642958 C 10.097561,9.0431255 10.35254,8.7580684 10.35744,8.4300353 l 0.0086,-0.5837323 c -7e-4,-0.1079811 0.0347,-0.1492177 0.165186,-0.1522675 l 2.509795,8.799e-4 c 0.24518,2.2e-4 0.525857,-0.1410184 0.532156,-0.5843422 z"
     fill="#d9d9d9"
     id="path3"
     style="stroke-width:0.999918" />
  <path
     d="m 2.0469193,8.8082343 h 7.6109775 c 0.328373,0.00358 0.4658622,-0.1607268 0.4633622,-0.4216355 l 0.0128,-0.6891236 c 0.0027,-0.1676663 0.132789,-0.232581 0.284077,-0.2338808 l 2.605886,6.699e-4 c 0.215983,0.00154 0.314775,-0.1011817 0.315375,-0.3614004 V 6.2084071 L 2.7513017,6.1987378 C 2.28287,6.1949382 2.0414598,6.563828 2.0432996,6.8429551 Z"
     fill="#d9d9d9"
     id="path4"
     style="stroke-width:0.999918" />
  <path
     d="M 1.8136484,6.7260147 H 0.73793638 c -0.3931178,6e-5 -0.4348044,0.2760174 -0.3746793,0.4459635 0.99201882,2.2067095 0.70901202,4.4502458 -0.32392352,6.7153608 -0.12933842,0.266878 0.0570973,0.469561 0.60675032,0.389168 L 2.7902485,14.046826 C 2.1520307,12.176779 1.9799348,10.435021 1.9707756,9.0405753 h -0.159547 z"
     fill="#d9d9d9"
     id="path5"
     style="stroke-width:0.999918" />
  <path
     d="m 20.172837,10.393725 3.42062,0.0232 v 1.349689 h 2.097728 c 0.580353,-0.0115 0.800135,-0.161386 0.787736,-0.985119 h 0.470561 c -0.0031,0.897326 -0.08179,1.414684 -1.248798,1.453081 h -2.107227 c -0.305675,7e-4 -0.433965,0.129089 -0.480861,0.424065 l -0.581152,2.902163 c -0.09689,0.372569 -0.213483,0.494759 -0.603351,0.416766 l -2.420602,-0.541156 c -0.293576,-0.06749 -0.407267,-0.203483 -0.233981,-0.584952 l 1.34929,-3.217737 c 0.184785,-0.645847 0.06029,-0.968521 -0.449963,-1.239998 z"
     fill="#d9d9d9"
     id="path6"
     style="stroke-width:0.999918" />
  <path
     d="m 24.125713,10.413223 h 0.510958 c -0.150387,0.338272 -0.182685,0.72854 -0.129789,1.156305 0.0338,0.206983 -0.165986,0.228382 -0.251379,0.07499 -0.102392,-0.222382 -0.207883,-0.463162 -0.12979,-1.231299 z"
     fill="#d9d9d9"
     id="path7"
     style="stroke-width:0.999918" />
  <path
     d="m 10.10656,12.446757 6.044206,-0.822733 0.497259,3.459017 -6.270887,0.870229 c 0.0387,-0.786036 0.0278,-1.58737 -0.06939,-2.20842 z"
     fill="#d9d9d9"
     id="path8"
     style="stroke-width:0.999918" />
  <path
     d="m 14.426907,6.1496119 h 4.488332 V 5.9704465 H 16.699421 V 5.6925593 h -0.696543 l 0.0325,-0.1212701 h 1.430083 V 4.9064136 H 15.766997 V 4.5425933 h -0.592352 v 0.8245326 h -0.60875 l -0.140788,0.341882 z"
     fill="#d9d9d9"
     id="path9"
     style="stroke-width:0.999918" />
  <path
     d="m 33.844918,6.1508818 h 3.05085 V 5.6518826 h -3.04575 z"
     fill="#d9d9d9"
     id="path10"
     style="stroke-width:0.999918" />
  <path
     d="m 19.617482,1.8436042 -0.0029,4.3054777 h 7.908153 V 1.8472539 H 25.581194 V 4.5018467 H 21.654115 V 1.8436042 Z m 5.214573,2.9560181 c 0.06979,-1e-5 0.138889,0.013729 0.203384,0.040427 0.06449,0.026708 0.12309,0.065855 0.172386,0.1152006 0.0494,0.049356 0.08849,0.1079511 0.11519,0.1724259 0.0267,0.064485 0.0405,0.133599 0.0405,0.2033933 0,0.069784 -0.0138,0.1388787 -0.0405,0.2033434 -0.0267,0.064475 -0.06589,0.1230499 -0.11519,0.1723859 -0.0494,0.049346 -0.107992,0.088483 -0.172386,0.1151806 -0.0645,0.026688 -0.133589,0.040427 -0.203384,0.040417 -0.140888,-1e-5 -0.276077,-0.055995 -0.375669,-0.1556373 -0.09969,-0.099642 -0.155687,-0.2347808 -0.155687,-0.3756893 0,-0.069784 0.0137,-0.1388886 0.0404,-0.2033633 0.0267,-0.064475 0.0659,-0.12306 0.115191,-0.1724059 0.0494,-0.049356 0.107891,-0.088503 0.172386,-0.1152106 0.0645,-0.026708 0.133589,-0.040457 0.203383,-0.040467 z m -1.189102,0.00155 c 0.06979,0 0.138888,0.013749 0.203383,0.040467 0.06449,0.026708 0.12309,0.065855 0.172386,0.1152005 0.0494,0.049356 0.08849,0.1079412 0.11519,0.1724159 0.0267,0.064475 0.0404,0.1335791 0.0404,0.2033534 0,0.1409185 -0.056,0.2760574 -0.155587,0.3757093 -0.09969,0.099642 -0.234781,0.1556172 -0.375769,0.1556272 -0.06969,10e-6 -0.138889,-0.013729 -0.203284,-0.040427 -0.06449,-0.026688 -0.12309,-0.065825 -0.172486,-0.1151705 -0.0493,-0.049336 -0.08849,-0.1079112 -0.11519,-0.1723859 -0.0267,-0.064465 -0.0404,-0.1335691 -0.0404,-0.2033534 -10e-5,-0.069784 0.0137,-0.1388986 0.0404,-0.2033834 0.0267,-0.064475 0.06579,-0.1230699 0.11519,-0.1724258 0.0494,-0.049346 0.107992,-0.088493 0.172386,-0.1152006 0.0645,-0.026698 0.133589,-0.040437 0.203384,-0.040427 z m -1.262697,0.024568 c 0.06979,0 0.138889,0.013759 0.203383,0.040467 0.0644,0.026708 0.12299,0.065855 0.172386,0.1152005 0.0493,0.049356 0.08849,0.1079412 0.115191,0.1724159 0.0266,0.064475 0.0404,0.1335791 0.0404,0.2033634 0,0.1409085 -0.05599,0.2760474 -0.155687,0.3756893 -0.09959,0.099642 -0.234781,0.1556272 -0.375669,0.1556372 -0.140889,-10e-6 -0.276077,-0.055995 -0.375669,-0.1556372 -0.09969,-0.099642 -0.155688,-0.2347808 -0.155688,-0.3756893 0,-0.069784 0.0138,-0.1388886 0.0405,-0.2033634 0.0267,-0.064475 0.0658,-0.1230599 0.115091,-0.1724159 0.0494,-0.049346 0.107991,-0.088493 0.172386,-0.1152005 0.06449,-0.026708 0.133589,-0.040467 0.203383,-0.040467 z"
     fill="#d9d9d9"
     id="path11"
     style="stroke-width:0.999918" />
  <path
     d="M 23.207688,0.63276123 V 0.8960217 h -0.184585 v 1.4552709 h -1.137207 v 1.8574881 h 0.970821 v 0.060335 h 2.341908 v -0.045706 h 0.148088 V 2.3238049 H 25.033439 V 0.8966016 H 24.849854 V 0.6380558 Z"
     fill="#d9d9d9"
     id="path12"
     style="stroke-width:0.999918" />
  <path
     d="m 13.03702,0.9882041 -0.139588,0.3335228 1.910643,0.8015144 v 2.2985119 h 2.895764 l 0.380068,-0.090493 h 0.530057 l 0.108591,0.062055 h 0.411067 L 19.387001,4.2485274 V 2.3093961 l -0.253379,-0.134449 h -0.408467 l -0.116391,0.056885 H 18.089107 L 17.703839,2.1594383 H 15.707802 L 15.187644,1.8260256 H 14.99656 Z"
     fill="#d9d9d9"
     id="path13"
     style="stroke-width:0.999918" />
  <path
     d="m 27.758916,2.297227 h 0.112191 l 2.326909,-0.6774045 h 2.621786 L 33.402854,1.246213 h 0.164087 L 36.5067,0 36.643789,0.32318956 33.779023,1.539669 v 3.4090011 h -3.582907 l -2.32141,-0.6770846 h -0.11579 z"
     fill="#d9d9d9"
     id="path14"
     style="stroke-width:0.999918" />
  <path
     d="M 65.875497,7.1283218 H 89.508664 V 8.7006731 H 65.875497 Z"
     fill="url(#paint0_linear_2761_754)"
     id="path15"
     style="fill:url(#paint0_linear_2761_754);stroke-width:0.999918" />
  <defs
     id="defs16">
    <linearGradient
       id="paint0_linear_2761_754"
       x1="90.344597"
       y1="8.18081"
       x2="66.709503"
       y2="8.18081"
       gradientUnits="userSpaceOnUse"
       gradientTransform="matrix(0.99991819,0,0,0.99991819,-0.82854543,-0.26560327)">
      <stop
         stop-color="#D9D9D9"
         id="stop15" />
      <stop
         offset="1"
         stop-color="#D9D9D9"
         stop-opacity="0"
         id="stop16" />
    </linearGradient>
  </defs>
</svg>

<svg xmlns="http://www.w3.org/2000/svg" width="89.509" height="16" fill="none"><path fill="#d9d9d9" d="M37.515 6.513v.473h.089v.256h-.089v1.693h.092v.23h-.092v.467h.093v.614h26.239v.07h1.165v-4.61h-1.153v.085H37.604v.722zM37.273 8l.006 2.444-10.792.107c-.167-.32-.244-.351-.612-.352h-.609V8.393c-.005-.148.032-.392.389-.392z" style="stroke-width:.999918"/><path fill="#d9d9d9" d="M13.564 6.382h23.718v1.383H25.748c-.362-.008-.723.093-.718.715v1.704l-8.192-.033c-.287.006-.452.086-.432.354l.056.848-6.372.86-.586-.024c-.27-1.49-2.985-.971-3.823 1.408-.194.46-.329.439-.708.44H3.039c-.51-1.562-.84-3.388-.832-4.998h7.457c.434.004.689-.28.693-.609l.009-.584c0-.108.035-.149.165-.152h2.51c.245.001.526-.14.532-.583z" style="stroke-width:.999918"/><path fill="#d9d9d9" d="M2.047 8.808h7.61c.33.004.467-.16.464-.421l.013-.69c.003-.167.133-.232.284-.233h2.606c.216.002.315-.1.315-.361v-.895l-10.588-.01c-.468-.003-.71.366-.708.645Z" style="stroke-width:.999918"/><path fill="#d9d9d9" d="M1.814 6.726H.738c-.393 0-.435.276-.375.446.992 2.207.71 4.45-.324 6.715-.129.267.057.47.607.39l2.144-.23c-.638-1.87-.81-3.612-.82-5.006h-.159zm18.359 3.668 3.42.023v1.35h2.098c.58-.012.8-.162.788-.986h.47c-.003.898-.081 1.415-1.248 1.454h-2.108c-.305 0-.434.129-.48.424l-.582 2.902c-.096.372-.213.495-.603.417l-2.42-.542c-.294-.067-.408-.203-.234-.585l1.349-3.217c.185-.646.06-.969-.45-1.24" style="stroke-width:.999918"/><path fill="#d9d9d9" d="M24.126 10.413h.51c-.15.338-.182.729-.13 1.157.035.207-.165.228-.25.075-.103-.223-.208-.464-.13-1.232m-14.019 2.034 6.044-.823.497 3.459-6.27.87c.038-.786.027-1.587-.07-2.208zm4.32-6.297h4.488v-.18H16.7v-.277h-.696l.032-.122h1.43v-.665h-1.698v-.363h-.592v.824h-.61l-.14.342zm19.418 0h3.05v-.498H33.85zM19.617 1.844l-.002 4.305h7.908V1.847H25.58v2.655h-3.927V1.844ZM24.832 4.8a.532.532 0 1 1 0 1.063.532.532 0 0 1 0-1.063m-1.189.001a.531.531 0 1 1 0 1.063.531.531 0 0 1 0-1.063m-1.263.025a.532.532 0 1 1 0 1.063.532.532 0 0 1 0-1.063" style="stroke-width:.999918"/><path fill="#d9d9d9" d="M23.208.633v.263h-.185v1.455h-1.137V4.21h.97v.06H25.2v-.046h.148v-1.9h-.314V.898h-.183v-.26ZM13.037.988l-.14.334 1.911.801v2.299h2.896l.38-.09h.53l.109.061h.41l.254-.144v-1.94l-.253-.134h-.409l-.116.057h-.52l-.385-.073h-1.996l-.52-.333h-.191Zm14.722 1.309h.112l2.327-.677h2.622l.583-.374h.164L36.507 0l.137.323-2.865 1.217v3.409h-3.583l-2.321-.677h-.116z" style="stroke-width:.999918"/><path fill="url(#a)" d="M65.875 7.128H89.51v1.573H65.875Z" style="fill:url(#a);stroke-width:.999918"/><defs><linearGradient id="a" x1="90.345" x2="66.71" y1="8.181" y2="8.181" gradientTransform="translate(-.829 -.266)scale(.99992)" gradientUnits="userSpaceOnUse"><stop stop-color="#D9D9D9"/><stop offset="1" stop-color="#D9D9D9" stop-opacity="0"/></linearGradient></defs></svg>
